**kern	**kern	**dynam
*part1	*part1	*part1
*staff2	*staff1	*
*I"Piano	*	*
*clefF4	*clefG2	*
*k[b-]	*k[b-]	*
=1	=1	=1
8DD	16e-XLL	.
.	16d	.
16F#XLL 16A	16c	.
16F#J 16A	16a	.
8F#J 8A	16g	.
.	16f#XJJ	.
=	=	=
8DD	16gLL	.
.	16dd	.
16GLL 16B-	16cc	.
16GJ 16B-	16b-	.
8GJ 8B-	16a	.
.	16b-JJ	.
=	=	=
8DD	16aLL	.
.	16g	.
16B-LL 16c#X 16en	16f#X	.
16B-J 16c# 16e	16g	.
8B-J 8c# 8e	16a	.
.	16b-JJ	.
=	=	=
8DD	16aLL	<
.	16f#X	.
16r	16dJJ	.
16ALL	16r	.
16F#X	16ggLL	.
16DJJ	16aaJJ	.
=	=	=
8GGG^ 8GG	16bb-LL	[ f
.	16aa	.
16B-LL 16d 16g	16gg	.
16B-J 16d 16g	16ddd	.
8B-J 8d 8g	16ccc	.
.	16bb-JJ	.
=	=	=
8CC^ 8C	16aaLL	.
.	16bb-	.
16B-LL 16e-X 16g	16aa	.
16B-J 16e- 16g	16gg	.
8B-J 8e- 8g	16ff	.
.	16ggJJ	.
=	=	=
8FF^ 8F	16ffLL	.
.	16ee-X	.
16ALL 16e-X 16f	16dd	.
16AJ 16e- 16f	16ee-	.
8AJ 8e- 8f	16dd	.
.	16ccJJ	.
=	=	=
*-	*-	*-
!!!system-decoration: {(s1,s2)}
